icons/src/svg/document_wrong.svg

<svg width="32" height="32" viewBox="0 0 32 32" fill="none" xmlns="http://www.w3.org/2000/svg">
<path fill-rule="evenodd" clip-rule="evenodd" d="M14.1924 17.8085C14.5829 18.1991 14.5829 18.8322 14.1924 19.2228L10.6568 22.7583L14.1924 26.2939C14.5829 26.6844 14.5829 27.3176 14.1924 27.7081C13.8019 28.0986 13.1687 28.0986 12.7782 27.7081L9.24261 24.1725L5.70711 27.708C5.31658 28.0986 4.68342 28.0986 4.29289 27.708C3.90237 27.3175 3.90237 26.6843 4.29289 26.2938L7.82839 22.7583L4.29289 19.2228C3.90237 18.8323 3.90237 18.1991 4.29289 17.8086C4.68342 17.4181 5.31658 17.4181 5.70711 17.8086L9.24261 21.3441L12.7782 17.8085C13.1687 17.418 13.8019 17.418 14.1924 17.8085Z" fill="#0D0F13"/>
<path fill-rule="evenodd" clip-rule="evenodd" d="M6 4C6 2.89543 6.89543 2 8 2H15.5858C16.1163 2 16.625 2.21071 17 2.58579L25.4142 11C25.7893 11.3751 26 11.8838 26 12.4142V28C26 29.1046 25.1046 30 24 30H17C16.4477 30 16 29.5523 16 29C16 28.4477 16.4477 28 17 28H24V13H17C15.8955 13 15 12.1046 15 11V4H8V15.0435C8 15.5957 7.55229 16.0435 7 16.0435C6.44772 16.0435 6 15.5957 6 15.0435V4ZM17 5.41421V11H22.5858L17 5.41421Z" fill="#0D0F13"/>
</svg>

<svg fill="none" xmlns="http://www.w3.org/2000/svg" viewBox="0 0 32 32">
  <path fill-rule="evenodd" clip-rule="evenodd" d="M14.192 17.808a1 1 0 0 1 0 1.414l-3.535 3.535 3.535 3.536a1 1 0 0 1-1.414 1.414l-3.535-3.535-3.536 3.535a1 1 0 1 1-1.414-1.414l3.535-3.536-3.535-3.535a1 1 0 1 1 1.414-1.414l3.536 3.535 3.535-3.535a1 1 0 0 1 1.414 0Z" fill="currentColor"/>
  <path fill-rule="evenodd" clip-rule="evenodd" d="M6 4a2 2 0 0 1 2-2h7.586A2 2 0 0 1 17 2.586L25.414 11A2 2 0 0 1 26 12.414V28a2 2 0 0 1-2 2h-7a1 1 0 1 1 0-2h7V13h-7a2 2 0 0 1-2-2V4H8v11.043a1 1 0 0 1-2 0V4Zm11 1.414V11h5.586L17 5.414Z" fill="currentColor"/>
</svg>
